X:1
T:Title
%%score { ( 1 2 5 ) | ( 3 4 ) }
L:1/8
Q:1/4=110
M:4/4
K:Bb
V:1 treble nm="Grand Piano"
V:2 treble 
V:5 treble 
V:3 bass 
V:4 bass 
V:1
 d4 d4 | [Bd]4 d4 | [Fd]4 [Fd]4 | d2 _d=d edBG | F2 z2 G2 z2 | [Bd]4 d4 | [Ae]4 [Ae]4 | %7
w: Samuel~W.~Beazley *|||||||
 e2 de fecA | [Ae]4 [Ae]4 | e4 e4 | [Bd]4 [Bd]4 | [Bd]2 [ce]2 [df]2 [Bd]2 | [c=e]4 [ce]4 | =e4 e4 | %14
w: |||||||
 [ce]4 [EAe]4 | e8 | d8 | d8 | [Fd]4 [Fd]4 | [Fd]6 z2 | d8 | d8 | [Ae]4 [Fe]4 | [Ae]6 z2 | %24
w: ||||||||||
 z2 z e z2 z e | [Ae]2 [EBe]2 [ce]2 [EAe]2 | z2 z _d z2 z _d | [Bd]2 [ce]2 [df]2 [Bd]2 | %28
w: ||||
 z2 z e z2 z e | [Bd]2 [Fd]2 [Bd]2 [c=e]2 | [df]4 [ce]4 | [Bd]6 z2 |] %32
w: ||||
V:2
 F2 [B,DF]2 G2 [B,DA]2 | z2 [B,D]2 B2 [B,DG]2 | z2 [B,D]2 z2 [B,D]2 | F6 z2 | %4
 d2- [B,DFd]2 d2- [B,DAd]2 | z2 [B,D]2 B2 [B,DG]2 | z2 [A,CE]2 z2 [A,CE]2 | A6 z2 | %8
 z2 [A,CE]2 z2 [A,CE]2 | A2 [EB]2 c2 [A,CEA]2 | z2 [B,D]2 z2 [B,D]2 | x8 | z2 [B,C=E]2 z2 [B,CE]2 | %13
 c2 [B,C=EG]2 A2 [B,CEB]2 | x8 | G4 [A,CEF]4 | F2 [B,DF]2 G2 [B,DA]2 | B2- [B,DB]2 B2 [B,DA]2 | %18
 z2 [B,D]2 z2 [B,D]2 | z2 [B,D]2 z2 [B,D]2 | F2 [B,DF]2 G2 [B,DA]2 | B2- [B,DB]2 B2 [B,DG]2 | %22
 z2 [A,CE]2 z2 [A,CE]2 | z2 [A,CE]2 z2 [A,CE]2 | [Ae]4 [Ae]4 | x8 | [Bd]4 [B=d]4 | x8 | %28
 [Ge]4 [Be]4 | x8 | z2 D2 z2 [CE]2 | x8 |] %32
V:3
 B,,2 F,2 F,,2 F,2 | z2 F,2 z4 | B,,2 z G F,,2 z G | B,,2 [F,B,D]2 F,,2 [F,B,D]2 | %4
 B,,2 F,2 F,,2 F,2 | z2 F,2 z4 | C,2 z[K:treble] B[K:bass] F,,2 z[K:treble] B | %7
 C,2 [F,A,CE]2 F,,2 [F,A,CE]2 | C,2 z[K:treble] B[K:bass] F,,2 z[K:treble] B | %9
 C,2 [F,A,C]2 F,,2 F,2 | B,,2 z A F,,2 z A | B,,2 [F,B,D]2 F,,2 [F,B,D]2 | %12
 C,2 z[K:treble] d[K:bass] C,2 z[K:treble] d | C,2 G,2 C,2 G,2 | [F,,F,]4 [F,A,C]4 | [F,,F,]4 F,4 | %16
 B,,2 F,2 F,,2 F,2 | z2 F,2 z4 | B,,2 z[K:treble] _d[K:bass] F,,2 z[K:treble] d | %19
 B,,2 F,2 F,,2 F,2 | B,,2 F,2 F,,2 F,2 | z2 F,2 z4 | C,2 z[K:treble] d[K:bass] F,,2 z[K:treble] d | %23
 C,2 F,2 F,,2 F,2 | C,2 z[K:treble] B[K:bass] F,,2 z[K:treble] B | C,2 [F,A,C]2 F,,2 [F,A,C]2 | %26
 B,,2 z A F,,2 z A | B,,2 [F,B,D]2 F,,2 [F,B,D]2 | z2 [G,B,]2[K:treble][K:bass] z2 [G,B,]2 | %29
 B,,2 [F,B,D]2 [G,,G,]2 [^F,,^F,]2 | [F,,F,]2 [F,B,]2 [F,,F,]2 [F,A,]2 | [B,,F,B,]6 z2 |] %32
V:4
 x8 | B,,2 z A F,,2 F,2 | z2 F,2 z2 F,2 | x8 | x8 | B,,2 z A F,,2 F,2 | %6
 z2 F,2[K:treble][K:bass] z2 F,2[K:treble] | x8 | z2 F,2[K:treble][K:bass] z2 F,2[K:treble] | x8 | %10
 z2 F,2 z2 F,2 | x8 | z2 G,2[K:treble][K:bass] z2 G,2[K:treble] | x8 | x8 | x8 | x8 | %17
 B,,2 z A F,,2 F,2 | z2 F,2[K:treble][K:bass] z2 F,2[K:treble] | x8 | x8 | B,,2 z A F,,2 F,2 | %22
 z2 F,2[K:treble][K:bass] z2 F,2[K:treble] | x8 | z2 F,2[K:treble][K:bass] z2 F,2[K:treble] | x8 | %26
 z2 F,2 z2 F,2 | x8 | [E,,E,]2 z[K:treble] c[K:bass] [E,,E,]2 z G | x8 | x8 | x8 |] %32
V:5
 x8 | x8 | x8 | x8 | x8 | x8 | x8 | x8 | x8 | x8 | x8 | x8 | x8 | x8 | x8 | x8 | x8 | x8 | x8 | %19
 x8 | x8 | x8 | x8 | x8 | z2 [A,CE]2 z2 [A,CE]2 | x8 | z2 [B,D]2 z2 [B,D]2 | x8 | z2 E2 z2 E2 | %29
 x8 | x8 | x8 |] %32

